X: 10652
T: A FAVORITE HORNPIPE
C:
%R: hornpipe, reel
B: Elias Howe "The Musician's Companion" Part 1 1842 p.65 #2
S: http://imslp.org/wiki/The_Musician's_Companion_(Howe,_Elias)
Z: 2015 John Chambers <jc:trillian.mit.edu>
M: 2/4
L: 1/16
K: D
% - - - - - - - - - - - - - - - - - - - - - - - - -
A2 |\
Aafd Agec | Aafe dcBA | BgAf GeFd | efge dcBA |\
Aafd Agec | Aafd cdef | gABc daga | (e4 d2) :|
|: (cd) |\
eAfA gAfA | eAce dcBA | BbAa GgFf | efge dcBA |\
BbBb AaAa | GgGg FfFf | cdef gABc | d2f2d2 :|
% - - - - - - - - - - - - - - - - - - - - - - - - -


